contributed-vectors/aaaaxy.svg

<svg xmlns="http://www.w3.org/2000/svg" id="svg16" version="1.1" viewBox="0 0 192 192"><defs id="defs4"><style id="style2">.a{fill:none;stroke:#b1b5bd;stroke-linecap:round;stroke-linejoin:round;isolation:isolate;opacity:.63}</style></defs><path id="rect829" d="M30 20c-5.54 0-10 4.46-10 10v118h12v12h12v12h104v-12h12v-12h12V30c0-5.54-4.46-10-10-10H30z" style="opacity:1;vector-effect:none;fill:#56595b;fill-opacity:1;fill-rule:evenodd;stroke:none;stroke-width:4;stroke-linecap:round;stroke-linejoin:round;stroke-miterlimit:4;stroke-dasharray:none;paint-order:stroke fill markers"/><path id="rect836" d="M32 36v100h12v12h12v12h80v-12h12v-12h12V36s0-4-4-4H36c-4 0-4 4-4 4z" style="opacity:1;vector-effect:none;fill:#8e6f60;fill-opacity:1;fill-rule:evenodd;stroke:none;stroke-width:4;stroke-linecap:round;stroke-linejoin:round;stroke-miterlimit:4;stroke-dasharray:none;paint-order:stroke fill markers"/><path id="rect843" d="M68 44h56v104H68z" style="opacity:1;vector-effect:none;fill:#b1b5bd;fill-opacity:1;fill-rule:evenodd;stroke:none;stroke-width:3.85449648;stroke-linecap:round;stroke-linejoin:round;stroke-miterlimit:4;stroke-dasharray:none;paint-order:stroke fill markers"/><path id="rect845" d="M56 56h80v80H56z" style="opacity:1;vector-effect:none;fill:#b1b5bd;fill-opacity:1;fill-rule:evenodd;stroke:none;stroke-width:3.7219367;stroke-linecap:round;stroke-linejoin:round;stroke-miterlimit:4;stroke-dasharray:none;paint-order:stroke fill markers"/><path id="rect847" d="M44 68h104v56H44z" style="opacity:1;vector-effect:none;fill:#b1b5bd;fill-opacity:1;fill-rule:evenodd;stroke:none;stroke-width:3.67171383;stroke-linecap:round;stroke-linejoin:round;stroke-miterlimit:4;stroke-dasharray:none;paint-order:stroke fill markers"/><path id="rect851" d="M56 68h80v56H56z" style="opacity:1;vector-effect:none;fill:#54688c;fill-opacity:1;fill-rule:evenodd;stroke:none;stroke-width:4;stroke-linecap:round;stroke-linejoin:round;stroke-miterlimit:4;stroke-dasharray:none;paint-order:stroke fill markers"/><path id="rect849" d="M68 56h56v80H68z" style="opacity:1;vector-effect:none;fill:#54688c;fill-opacity:1;fill-rule:evenodd;stroke:none;stroke-width:4;stroke-linecap:round;stroke-linejoin:round;stroke-miterlimit:4;stroke-dasharray:none;paint-order:stroke fill markers"/><path id="rect855" d="M84 68v12H72v12h-8v12h16V92h8v32h16V92h8v12h16V92h-8V80h-12V68H84z" style="opacity:1;vector-effect:none;fill:#98dc9a;fill-opacity:1;fill-rule:evenodd;stroke:none;stroke-width:4;stroke-linecap:round;stroke-linejoin:round;stroke-miterlimit:4;stroke-dasharray:none;paint-order:stroke fill markers"/></svg>

<?xml version="1.0" encoding="UTF-8" standalone="no"?>
<svg
   xmlns:dc="http://purl.org/dc/elements/1.1/"
   xmlns:cc="http://creativecommons.org/ns#"
   xmlns:rdf="http://www.w3.org/1999/02/22-rdf-syntax-ns#"
   xmlns:svg="http://www.w3.org/2000/svg"
   xmlns="http://www.w3.org/2000/svg"
   xmlns:sodipodi="http://sodipodi.sourceforge.net/DTD/sodipodi-0.dtd"
   xmlns:inkscape="http://www.inkscape.org/namespaces/inkscape"
   viewBox="0 0 192 192"
   version="1.1"
   id="svg16"
   sodipodi:docname="aaaaxy.svg"
   inkscape:version="0.92.4 (5da689c313, 2019-01-14)">
  <metadata
     id="metadata20">
    <rdf:RDF>
      <cc:Work
         rdf:about="">
        <dc:format>image/svg+xml</dc:format>
        <dc:type
           rdf:resource="http://purl.org/dc/dcmitype/StillImage" />
        <dc:title></dc:title>
      </cc:Work>
    </rdf:RDF>
  </metadata>
  <sodipodi:namedview
     pagecolor="#ffffff"
     bordercolor="#666666"
     borderopacity="1"
     objecttolerance="10"
     gridtolerance="10"
     guidetolerance="10"
     inkscape:pageopacity="0"
     inkscape:pageshadow="2"
     inkscape:window-width="1920"
     inkscape:window-height="1017"
     id="namedview18"
     showgrid="true"
     inkscape:zoom="3.4766083"
     inkscape:cx="84.756915"
     inkscape:cy="93.67496"
     inkscape:window-x="-8"
     inkscape:window-y="-8"
     inkscape:window-maximized="1"
     inkscape:current-layer="svg16">
    <inkscape:grid
       type="xygrid"
       id="grid827"
       spacingx="4"
       spacingy="4" />
  </sodipodi:namedview>
  <defs
     id="defs4">
    <style
       id="style2">.a{fill:none;stroke:#b1b5bd;stroke-linecap:round;stroke-linejoin:round;isolation:isolate;opacity:0.63;}</style>
  </defs>
  <path
     style="opacity:1;vector-effect:none;fill:#56595b;fill-opacity:1;fill-rule:evenodd;stroke:none;stroke-width:4;stroke-linecap:round;stroke-linejoin:round;stroke-miterlimit:4;stroke-dasharray:none;paint-order:stroke fill markers"
     d="M 30 20 C 24.46 20 20 24.46 20 30 L 20 148 L 32 148 L 32 160 L 44 160 L 44 172 L 148 172 L 148 160 L 160 160 L 160 148 L 172 148 L 172 30 C 172 24.46 167.54 20 162 20 L 30 20 z "
     id="rect829" />
  <path
     style="opacity:1;vector-effect:none;fill:#8e6f60;fill-opacity:1;fill-rule:evenodd;stroke:none;stroke-width:4;stroke-linecap:round;stroke-linejoin:round;stroke-miterlimit:4;stroke-dasharray:none;paint-order:stroke fill markers"
     d="m 32,36 v 100 h 12 v 12 h 12 v 12 h 80 v -12 h 12 v -12 h 12 V 36 c 0,0 0,-4 -4,-4 -40,0 -80,0 -120,0 -4,0 -4,4 -4,4 z"
     id="rect836"
     inkscape:connector-curvature="0"
     sodipodi:nodetypes="ccccccccccccssc" />
  <rect
     style="opacity:1;vector-effect:none;fill:#b1b5bd;fill-opacity:1;fill-rule:evenodd;stroke:none;stroke-width:3.85449648;stroke-linecap:round;stroke-linejoin:round;stroke-miterlimit:4;stroke-dasharray:none;paint-order:stroke fill markers"
     id="rect843"
     width="56"
     height="104"
     x="68"
     y="44" />
  <rect
     style="opacity:1;vector-effect:none;fill:#b1b5bd;fill-opacity:1;fill-rule:evenodd;stroke:none;stroke-width:3.7219367;stroke-linecap:round;stroke-linejoin:round;stroke-miterlimit:4;stroke-dasharray:none;paint-order:stroke fill markers"
     id="rect845"
     width="80"
     height="80"
     x="56"
     y="56" />
  <rect
     style="opacity:1;vector-effect:none;fill:#b1b5bd;fill-opacity:1;fill-rule:evenodd;stroke:none;stroke-width:3.67171383;stroke-linecap:round;stroke-linejoin:round;stroke-miterlimit:4;stroke-dasharray:none;paint-order:stroke fill markers"
     id="rect847"
     width="104"
     height="56"
     x="44"
     y="68" />
  <rect
     style="opacity:1;vector-effect:none;fill:#54688c;fill-opacity:1;fill-rule:evenodd;stroke:none;stroke-width:4;stroke-linecap:round;stroke-linejoin:round;stroke-miterlimit:4;stroke-dasharray:none;paint-order:stroke fill markers"
     id="rect851"
     width="80"
     height="56"
     x="56"
     y="68" />
  <rect
     style="opacity:1;vector-effect:none;fill:#54688c;fill-opacity:1;fill-rule:evenodd;stroke:none;stroke-width:4;stroke-linecap:round;stroke-linejoin:round;stroke-miterlimit:4;stroke-dasharray:none;paint-order:stroke fill markers"
     id="rect849"
     width="56"
     height="80"
     x="68"
     y="56" />
  <path
     style="opacity:1;vector-effect:none;fill:#98dc9a;fill-opacity:1;fill-rule:evenodd;stroke:none;stroke-width:4;stroke-linecap:round;stroke-linejoin:round;stroke-miterlimit:4;stroke-dasharray:none;paint-order:stroke fill markers"
     d="M 84 68 L 84 80 L 72 80 L 72 92 L 64 92 L 64 104 L 80 104 L 80 92 L 88 92 L 88 124 L 104 124 L 104 92 L 112 92 L 112 104 L 128 104 L 128 92 L 120 92 L 120 80 L 108 80 L 108 68 L 84 68 z "
     id="rect855" />
</svg>
